dist/assets/img/icons/tg1.svg

<svg width="24" height="25" viewBox="0 0 24 25" fill="none" xmlns="http://www.w3.org/2000/svg">
<g clip-path="url(#clip0_33_628)">
<path fill-rule="evenodd" clip-rule="evenodd" d="M18.3839 23.2789C18.7059 23.5069 19.1209 23.5639 19.4909 23.4239C19.8609 23.2829 20.1329 22.9669 20.2149 22.5839C21.0839 18.4999 23.1919 8.1629 23.9829 4.4479C24.0429 4.1679 23.9429 3.8769 23.7229 3.6899C23.5029 3.5029 23.1979 3.4489 22.9259 3.5499C18.7329 5.1019 5.81991 9.9469 0.54191 11.8999C0.20691 12.0239 -0.0110904 12.3459 -9.04275e-05 12.6989C0.0119096 13.0529 0.24991 13.3599 0.59291 13.4629C2.95991 14.1709 6.06691 15.1559 6.06691 15.1559C6.06691 15.1559 7.51891 19.5409 8.27591 21.7709C8.37091 22.0509 8.58991 22.2709 8.87891 22.3469C9.16691 22.4219 9.47491 22.3429 9.68991 22.1399C10.9059 20.9919 12.7859 19.2169 12.7859 19.2169C12.7859 19.2169 16.3579 21.8359 18.3839 23.2789ZM7.37391 14.6019L9.05291 20.1399L9.42591 16.6329C9.42591 16.6329 15.9129 10.7819 19.6109 7.4469C19.7189 7.3489 19.7339 7.1849 19.6439 7.0699C19.5549 6.9549 19.3909 6.9279 19.2679 7.0059C14.9819 9.7429 7.37391 14.6019 7.37391 14.6019Z" fill="#83FFD3"/>
</g>
<defs>
<clipPath id="clip0_33_628">
<rect width="24" height="24" fill="white" transform="translate(0 0.5)"/>
</clipPath>
</defs>
</svg>

<svg width="24" height="25" fill="none" xmlns="http://www.w3.org/2000/svg"><g clip-path="url(#clip0_33_628)"><path fill-rule="evenodd" clip-rule="evenodd" d="M18.384 23.279a1.19 1.19 0 001.107.145 1.16 1.16 0 00.724-.84c.869-4.084 2.977-14.421 3.768-18.136a.78.78 0 00-.26-.758.8.8 0 00-.797-.14C18.733 5.102 5.82 9.947.542 11.9a.827.827 0 00-.542.799.83.83 0 00.593.764c2.367.708 5.474 1.693 5.474 1.693s1.452 4.385 2.209 6.615c.095.28.314.5.603.576a.866.866 0 00.81-.207l3.097-2.923s3.572 2.619 5.598 4.062zm-11.01-8.677l1.679 5.538.373-3.507L19.61 7.447a.277.277 0 00.033-.377.284.284 0 00-.376-.064L7.374 14.602z" fill="#83FFD3"/></g><defs><clipPath id="clip0_33_628"><path fill="#fff" transform="translate(0 .5)" d="M0 0h24v24H0z"/></clipPath></defs></svg>
